IPD_logo.svg

<?xml version="1.0" encoding="UTF-8" standalone="no"?><!DOCTYPE svg PUBLIC "-//W3C//DTD SVG 1.1//EN" "http://www.w3.org/Graphics/SVG/1.1/DTD/svg11.dtd"><svg width="100%" height="100%" viewBox="0 0 195 193" version="1.1" xmlns="http://www.w3.org/2000/svg" xmlns:xlink="http://www.w3.org/1999/xlink" xml:space="preserve" xmlns:serif="http://www.serif.com/" style="fill-rule:evenodd;clip-rule:evenodd;stroke-linejoin:round;stroke-miterlimit:2;"><g id="logo"><path d="M112.333,78.896c0.034,-1.442 -0.051,-1.437 0.035,-2.881c0.062,-1.034 0.378,-0.968 1.42,-0.976c0.394,-0.003 4.038,-0.029 4.928,-0.002c0.085,0.003 0.762,0.024 0.913,0.548c0.044,0.152 0.048,1.161 0.049,1.262c0.004,0.951 0.046,10.754 0.012,11.891c-0.003,0.086 -0.023,0.777 -0.534,0.928c-0.499,0.148 -6.09,-0.077 -6.671,0.14c-0.601,0.224 -0.444,0.937 -0.464,4.247c-0.014,2.262 0.248,3.082 -1.103,3.09c-4.441,0.027 -5.779,-0.202 -6.13,0.199c-0.45,0.515 0.092,6.511 -0.379,6.991c-0.301,0.307 -0.36,0.338 -5.365,0.238c-1.333,-0.027 -1.905,-0.373 -1.946,0.958c-0.023,0.743 -0.002,17.711 -0,19.252c0.002,1.833 -0.179,2.389 1.123,2.402c5.938,0.06 6.041,0.077 6.216,0.413c0.484,0.934 -0.157,6.369 0.404,6.955c0.256,0.268 1.07,0.246 1.165,0.243c0.008,-0 1.175,-0.01 2.457,-0.008c8.407,0.012 8.397,0.047 16.799,0.057c7.939,0.009 7.939,0.047 8.625,-0.031c1.176,-0.135 0.875,-0.713 0.874,-3.067c-0.002,-3.551 -0.09,-4.137 0.408,-4.34c0.503,-0.205 5.909,-0.125 6.071,-0.129c1.387,-0.034 1.026,-1.269 1.021,-2.088c-0.03,-4.833 -0.01,-4.919 0.338,-5.138c0.506,-0.319 5.615,-0.031 6.407,-0.243c0.736,-0.197 0.598,-1.294 0.583,-2.815c-0.036,-3.746 -0.098,-4.139 0.319,-4.402c0.64,-0.402 6.243,-0.065 6.983,-0.339c0.638,-0.237 0.47,-1.633 0.469,-1.811c-0.009,-11.656 -0.029,-11.655 0.011,-12.277c0.078,-1.204 0.961,-0.847 5.99,-0.861c0.574,-0.002 1.258,0.049 1.386,-0.765c0.021,-0.133 0.009,-0.131 -0.008,-1.257c-0.078,-5.12 -0.064,-30.118 -0.076,-31.544c-0.087,-10.678 0.131,-10.813 -0.339,-11.23c-0.603,-0.535 -5.959,0.085 -6.637,-0.341c-0.605,-0.38 -0.289,-0.585 -0.332,-7.276c-0.042,-6.572 0.072,-6.974 -0.212,-7.315c-0.504,-0.604 -4.652,-0.087 -6.506,-0.302c-1.263,-0.146 -0.925,-1.073 -0.933,-3.443c-0.012,-3.595 0.085,-3.753 -0.321,-4.027c-0.419,-0.283 -2.939,0.05 -5.688,-0.062c-0.95,-0.039 -1.307,-0.164 -1.442,-0.848c-0.042,-0.213 0.049,-5.286 -0.017,-5.745c-0.152,-1.066 -1.055,-0.764 -3.456,-0.748c-0.821,0.005 -0.812,0.001 -1.639,0.007c-1.685,0.013 -2.419,0.405 -2.413,-1.279c0.021,-5.508 0.048,-5.745 -0.186,-6.024c-0.573,-0.686 -6.661,0.153 -7.243,-0.524c-0.395,-0.461 -0.11,-6.052 -0.23,-6.604c-0.187,-0.869 -1.355,-0.611 -2.628,-0.603c-4.002,0.024 -4.295,0.069 -4.473,-0.594c-0.118,-0.44 -0.102,-4.177 0.007,-5.723c0.093,-1.325 0.922,-1.024 2.417,-1.025c8.678,-0.01 8.67,-0.008 9.424,-0.026c0.255,-0.006 12.1,-0.009 12.289,-0.004c4.727,0.121 4.866,-0.109 5.188,0.339c0.177,0.247 0.179,1.032 0.179,1.124c0.008,5.187 -0.133,5.442 0.29,5.83c0.423,0.387 2.941,0.224 6.226,0.241c7.77,0.04 7.812,0.014 8.063,0.224c0.657,0.549 -0.164,6.511 0.635,7.1c0.54,0.398 4.905,0.016 6.446,0.22c0.984,0.13 0.786,0.777 0.784,4.412c-0.001,2.233 -0.242,2.949 1.277,2.971c5.586,0.082 5.743,-0.162 6.096,0.34c0.116,0.165 0.214,0.18 0.179,5.294c-0.009,1.341 -0.232,1.86 1.105,1.89c5.661,0.13 6.043,-0.309 6.349,0.606c0.022,0.064 -0.02,5.819 -0.005,6.515c0.134,6.289 -0.195,7.262 0.278,7.709c0.584,0.553 6.225,0.087 6.951,0.379c0.47,0.189 0.395,0.497 0.418,3.384c0.098,12.438 -0.033,12.437 -0.021,13.519c0.067,6.103 -0.045,6.096 -0.003,10.652c0.017,1.901 0.108,11.722 0.017,23.763c-0.055,7.367 0.305,7.695 -0.514,8.01c-0.229,0.088 -5.233,0.034 -5.688,0.029c-1.642,-0.018 -1.424,0.615 -1.42,2.204c0.003,0.951 0.026,9.789 -0.023,11.889c-0.016,0.696 0.034,0.846 -0.635,1.038c-0.197,0.056 -5.642,-0.15 -6.175,0.019c-0.921,0.293 -0.474,0.686 -0.586,6.316c-0.028,1.38 -0.933,0.986 -2.634,1.043c-1.013,0.034 -4.371,-0.282 -4.747,0.299c-0.433,0.668 0.014,6.218 -0.303,6.762c-0.27,0.464 -1.181,0.331 -3.143,0.329c-3.499,-0.004 -4.044,-0.146 -4.333,0.621c-0.044,0.117 -0.048,1.086 -0.048,1.181c-0.019,4.54 0.028,4.536 0.006,4.93c-0.061,1.079 -1.111,0.816 -2.181,0.816c-15.077,0.007 -15.077,-0.025 -16.387,-0.004c-2.704,0.042 -3.337,-0.06 -3.665,0.419c-0.361,0.527 -0.132,5.122 -0.192,6.122c-0.064,1.067 -0.398,0.991 -1.468,0.99c-61.817,-0.013 -61.815,0.005 -67.19,-0.019c-8.796,-0.038 -8.94,0.191 -9.277,-0.26c-0.23,-0.308 -0.156,-0.351 -0.155,-4.8c-0.002,-12.837 -0.003,-25.674 -0.005,-38.511c0.031,-7.897 -0.119,-7.983 0.249,-8.362c0.491,-0.506 0.632,-0.261 19.841,-0.273c5.176,-0.003 5.571,0.038 5.768,-0.355c0.342,-0.681 -0.072,-5.81 0.242,-6.639c0.271,-0.715 1.691,-0.529 2.595,-0.526c9.877,0.033 10.561,0.005 11.479,-0.032c1.066,-0.043 1.024,-0.369 0.991,-1.433c-0.02,-0.639 0.018,-5.157 0.083,-5.377c0.202,-0.685 1.682,-0.566 1.786,-0.562c1.851,0.058 1.845,0.022 3.691,-0.004c1.437,-0.02 1.889,0.006 1.853,-1.431c-0.026,-1.025 -0.03,-1.017 -0.036,-2.045Z" style="fill:#010101;"/><path d="M62.989,0.003c5.764,-0.001 17.916,0.012 18.024,0.01c0.022,-0 1.132,-0.109 1.169,1.046c0.085,2.666 -0.09,2.662 0.036,5.324c0.067,1.42 0.754,1.153 3.715,1.185c4.224,0.045 10.045,-0.106 10.629,0.097c0.733,0.254 0.506,1.295 0.536,6.09c0.009,1.417 0.528,1.249 1.944,1.27c3.184,0.047 5.1,-0.178 5.373,0.335c0.28,0.523 0.171,0.565 0.153,10.687c-0.003,1.89 0.022,1.883 0.022,2.047c-0.004,0.959 -0.237,1.823 1.012,1.89c0.425,0.023 0.423,-0.082 5.325,0.021c1.059,0.022 1.079,0.304 1.08,1.368c0.005,6.555 0.011,13.11 0.016,19.664c0.001,0.937 -0.076,1.221 -1.1,1.226c-5.826,0.029 -5.998,-0.092 -6.21,0.374c-0.285,0.626 -0.077,10.713 -0.114,12.33c-0.037,1.597 0.134,2.154 -1.045,2.184c-1.501,0.038 -5.779,-0.056 -6.067,0.056c-0.495,0.193 -0.386,0.512 -0.385,5.953c0,1.146 -0.029,1.486 -1.338,1.493c-6.146,0.032 -6.14,0.017 -12.289,-0c-1.632,-0.005 -1.256,0.78 -1.283,3.832c-0.027,3.028 0.278,3.7 -1.175,3.715c-2.425,0.025 -2.424,-0.115 -30.317,-0.039c-4.751,0.013 -5.513,0.293 -5.593,-0.822c-0.005,-0.072 0.019,-5.643 0.034,-5.695c0.18,-0.615 0.517,-0.599 1.871,-0.642c0.328,-0.01 0.324,0.113 4.096,0.003c1.491,-0.043 1.391,-0.475 1.421,-1.437c0.063,-1.966 -0.146,-5.381 0.188,-5.757c0.364,-0.41 0.468,-0.218 5.357,-0.37c7.088,-0.221 9.302,0.579 9.524,-0.822c0.004,-0.027 -0.039,-4.019 0.027,-5.743c0.033,-0.871 0.415,-0.987 1.099,-0.989c2.536,-0.009 5.596,0.245 6.064,-0.316c0.292,-0.35 0.179,-0.958 0.186,-5.257c0,-0.096 0.002,-1.1 0.037,-1.195c0.243,-0.652 0.386,-0.574 1.084,-0.588c0.813,-0.016 5.58,0.011 5.719,-0.02c0.733,-0.168 0.727,-0.316 0.731,-1.066c0.009,-1.639 0.059,-10.356 -0.015,-20.482c-0.011,-1.543 -0.696,-1.182 -2.743,-1.199c-2.68,-0.022 -4.324,0.15 -4.595,-0.372c-0.223,-0.43 -0.158,-0.457 -0.191,-4.168c-0.018,-2.086 0.3,-2.965 -1.361,-2.91c-0.454,0.015 -5.286,0.175 -5.68,-0.052c-0.32,-0.185 -0.341,-0.668 -0.344,-0.733c-0.022,-0.497 0.044,-5.838 -0.053,-6.158c-0.203,-0.67 -0.476,-0.535 -7.031,-0.538c-20.364,-0.012 -20.357,-0.03 -22.127,-0.004c-0.457,0.007 -0.995,0.008 -1.05,0.979c-0.063,1.115 0.161,5.512 -0.164,6.148c-0.401,0.786 -4.358,0.277 -6.158,0.341c-1.399,0.05 -1.13,0.871 -1.135,2.93c-0.044,18.868 0.052,18.917 -0.159,19.207c-0.288,0.395 -0.406,0.293 -8.537,0.311c-0.425,0.001 -5.219,0.012 -5.318,0.007c-0.862,-0.037 -0.975,-0.474 -0.988,-1.086c-0.017,-0.813 0.025,-5.677 0.014,-5.718c-0.184,-0.718 -0.336,-0.694 -1.081,-0.692c-5.235,0.013 -6.222,0.447 -6.271,-0.963c-0.011,-0.316 -0.001,-10.181 -0,-11.066c0.001,-1.35 0.136,-2.485 -0.338,-2.781c-0.302,-0.189 -0.333,-0.132 -4.454,-0.084c-1.808,0.021 -2.646,0.278 -2.706,-1.234c-0.014,-0.345 -0.06,-19.475 -0.014,-20.059c0.107,-1.353 1.442,-0.961 3.948,-1.037c1.037,-0.031 58.025,0.005 58.996,-0.029Z" style="fill:#010101;"/><path d="M31.033,149.528c-4.638,-0.039 -29.629,-0.007 -29.914,-0.015c-1.138,-0.032 -1.081,-0.669 -1.085,-1.38c-0.065,-12.066 -0.018,-29.776 -0.011,-32.365c0.07,-26.636 -0.074,-26.626 0.003,-53.26c0.005,-1.827 -0.322,-2.554 1.507,-2.592c0.455,-0.009 23.426,-0.018 24.995,-0.011c5.251,0.024 5.53,-0.131 5.739,0.552c0.169,0.552 0.133,17.515 0.137,60.635c0,2.197 0.003,27.252 -0.01,27.458c-0.073,1.167 -0.783,0.938 -1.362,0.976Z" style="fill:#010101;"/><path d="M187.314,140.758c-0.047,-5.367 -0.093,-5.706 0.593,-5.875c0.089,-0.022 5.774,-0.106 6.215,0.072c0.564,0.229 0.488,1.656 0.479,2.937c-0.075,9.804 0.037,9.804 0,10.656c-0.048,1.105 -0.875,0.982 -1.742,0.978c-8.09,-0.032 -11.992,0.045 -12.323,-0.039c-0.8,-0.203 -0.603,-1.75 -0.603,-1.766c-0.019,-3.744 -0.065,-4.942 0.293,-5.245c0.495,-0.419 4.412,-0.087 6.069,-0.225c1.3,-0.108 1.002,-1.057 1.02,-1.493Z" style="fill:#010201;"/></g><g transform="matrix(36.5,0,0,36.5,199.071,192.252494)"></g><text x="0px" y="192.252px" style="font-family:'Tiny5-Regular', 'Tiny5';font-size:36.5px;">W<tspan x="29.091px 53.619px 78.147px 102.675px 127.203px 151.731px 176.259px " y="192.252px 192.252px 192.252px 192.252px 192.252px 192.252px 192.252px ">ORKSHOP</tspan></text></svg>

<?xml version="1.0" encoding="UTF-8" standalone="no"?>
<!DOCTYPE svg PUBLIC "-//W3C//DTD SVG 1.1//EN" "http://www.w3.org/Graphics/SVG/1.1/DTD/svg11.dtd">
<svg width="100%" height="100%" viewBox="0 0 813 805" version="1.1" xmlns="http://www.w3.org/2000/svg" xmlns:xlink="http://www.w3.org/1999/xlink" xml:space="preserve" xmlns:serif="http://www.serif.com/" style="fill-rule:evenodd;clip-rule:evenodd;stroke-linejoin:round;stroke-miterlimit:2;">
    <g transform="matrix(4.166667,0,0,4.166667,0,0)">
        <g id="logo">
            <path d="M112.333,78.896C112.367,77.454 112.282,77.459 112.368,76.015C112.43,74.981 112.746,75.047 113.788,75.039C114.182,75.036 117.826,75.01 118.716,75.037C118.801,75.04 119.478,75.061 119.629,75.585C119.673,75.737 119.677,76.746 119.678,76.847C119.682,77.798 119.724,87.601 119.69,88.738C119.687,88.824 119.667,89.515 119.156,89.666C118.657,89.814 113.066,89.589 112.485,89.806C111.884,90.03 112.041,90.743 112.021,94.053C112.007,96.315 112.269,97.135 110.918,97.143C106.477,97.17 105.139,96.941 104.788,97.342C104.338,97.857 104.88,103.853 104.409,104.333C104.108,104.64 104.049,104.671 99.044,104.571C97.711,104.544 97.139,104.198 97.098,105.529C97.075,106.272 97.096,123.24 97.098,124.781C97.1,126.614 96.919,127.17 98.221,127.183C104.159,127.243 104.262,127.26 104.437,127.596C104.921,128.53 104.28,133.965 104.841,134.551C105.097,134.819 105.911,134.797 106.006,134.794C106.014,134.794 107.181,134.784 108.463,134.786C116.87,134.798 116.86,134.833 125.262,134.843C133.201,134.852 133.201,134.89 133.887,134.812C135.063,134.677 134.762,134.099 134.761,131.745C134.759,128.194 134.671,127.608 135.169,127.405C135.672,127.2 141.078,127.28 141.24,127.276C142.627,127.242 142.266,126.007 142.261,125.188C142.231,120.355 142.251,120.269 142.599,120.05C143.105,119.731 148.214,120.019 149.006,119.807C149.742,119.61 149.604,118.513 149.589,116.992C149.553,113.246 149.491,112.853 149.908,112.59C150.548,112.188 156.151,112.525 156.891,112.251C157.529,112.014 157.361,110.618 157.36,110.44C157.351,98.784 157.331,98.785 157.371,98.163C157.449,96.959 158.332,97.316 163.361,97.302C163.935,97.3 164.619,97.351 164.747,96.537C164.768,96.404 164.756,96.406 164.739,95.28C164.661,90.16 164.675,65.162 164.663,63.736C164.576,53.058 164.794,52.923 164.324,52.506C163.721,51.971 158.365,52.591 157.687,52.165C157.082,51.785 157.398,51.58 157.355,44.889C157.313,38.317 157.427,37.915 157.143,37.574C156.639,36.97 152.491,37.487 150.637,37.272C149.374,37.126 149.712,36.199 149.704,33.829C149.692,30.234 149.789,30.076 149.383,29.802C148.964,29.519 146.444,29.852 143.695,29.74C142.745,29.701 142.388,29.576 142.253,28.892C142.211,28.679 142.302,23.606 142.236,23.147C142.084,22.081 141.181,22.383 138.78,22.399C137.959,22.404 137.968,22.4 137.141,22.406C135.456,22.419 134.722,22.811 134.728,21.127C134.749,15.619 134.776,15.382 134.542,15.103C133.969,14.417 127.881,15.256 127.299,14.579C126.904,14.118 127.189,8.527 127.069,7.975C126.882,7.106 125.714,7.364 124.441,7.372C120.439,7.396 120.146,7.441 119.968,6.778C119.85,6.338 119.866,2.601 119.975,1.055C120.068,-0.27 120.897,0.031 122.392,0.03C131.07,0.02 131.062,0.022 131.816,0.004C132.071,-0.002 143.916,-0.005 144.105,-0C148.832,0.121 148.971,-0.109 149.293,0.339C149.47,0.586 149.472,1.371 149.472,1.463C149.48,6.65 149.339,6.905 149.762,7.293C150.185,7.68 152.703,7.517 155.988,7.534C163.758,7.574 163.8,7.548 164.051,7.758C164.708,8.307 163.887,14.269 164.686,14.858C165.226,15.256 169.591,14.874 171.132,15.078C172.116,15.208 171.918,15.855 171.916,19.49C171.915,21.723 171.674,22.439 173.193,22.461C178.779,22.543 178.936,22.299 179.289,22.801C179.405,22.966 179.503,22.981 179.468,28.095C179.459,29.436 179.236,29.955 180.573,29.985C186.234,30.115 186.616,29.676 186.922,30.591C186.944,30.655 186.902,36.41 186.917,37.106C187.051,43.395 186.722,44.368 187.195,44.815C187.779,45.368 193.42,44.902 194.146,45.194C194.616,45.383 194.541,45.691 194.564,48.578C194.662,61.016 194.531,61.015 194.543,62.097C194.61,68.2 194.498,68.193 194.54,72.749C194.557,74.65 194.648,84.471 194.557,96.512C194.502,103.879 194.862,104.207 194.043,104.522C193.814,104.61 188.81,104.556 188.355,104.551C186.713,104.533 186.931,105.166 186.935,106.755C186.938,107.706 186.961,116.544 186.912,118.644C186.896,119.34 186.946,119.49 186.277,119.682C186.08,119.738 180.635,119.532 180.102,119.701C179.181,119.994 179.628,120.387 179.516,126.017C179.488,127.397 178.583,127.003 176.882,127.06C175.869,127.094 172.511,126.778 172.135,127.359C171.702,128.027 172.149,133.577 171.832,134.121C171.562,134.585 170.651,134.452 168.689,134.45C165.19,134.446 164.645,134.304 164.356,135.071C164.312,135.188 164.308,136.157 164.308,136.252C164.289,140.792 164.336,140.788 164.314,141.182C164.253,142.261 163.203,141.998 162.133,141.998C147.056,142.005 147.056,141.973 145.746,141.994C143.042,142.036 142.409,141.934 142.081,142.413C141.72,142.94 141.949,147.535 141.889,148.535C141.825,149.602 141.491,149.526 140.421,149.525C78.604,149.512 78.606,149.53 73.231,149.506C64.435,149.468 64.291,149.697 63.954,149.246C63.724,148.938 63.798,148.895 63.799,144.446C63.797,131.609 63.796,118.772 63.794,105.935C63.825,98.038 63.675,97.952 64.043,97.573C64.534,97.067 64.675,97.312 83.884,97.3C89.06,97.297 89.455,97.338 89.652,96.945C89.994,96.264 89.58,91.135 89.894,90.306C90.165,89.591 91.585,89.777 92.489,89.78C102.366,89.813 103.05,89.785 103.968,89.748C105.034,89.705 104.992,89.379 104.959,88.315C104.939,87.676 104.977,83.158 105.042,82.938C105.244,82.253 106.724,82.372 106.828,82.376C108.679,82.434 108.673,82.398 110.519,82.372C111.956,82.352 112.408,82.378 112.372,80.941C112.346,79.916 112.342,79.924 112.336,78.896L112.333,78.896Z" style="fill:rgb(1,1,1);"/>
            <path d="M62.989,0.003C68.753,0.002 80.905,0.015 81.013,0.013C81.035,0.013 82.145,-0.096 82.182,1.059C82.267,3.725 82.092,3.721 82.218,6.383C82.285,7.803 82.972,7.536 85.933,7.568C90.157,7.613 95.978,7.462 96.562,7.665C97.295,7.919 97.068,8.96 97.098,13.755C97.107,15.172 97.626,15.004 99.042,15.025C102.226,15.072 104.142,14.847 104.415,15.36C104.695,15.883 104.586,15.925 104.568,26.047C104.565,27.937 104.59,27.93 104.59,28.094C104.586,29.053 104.353,29.917 105.602,29.984C106.027,30.007 106.025,29.902 110.927,30.005C111.986,30.027 112.006,30.309 112.007,31.373C112.012,37.928 112.018,44.483 112.023,51.037C112.024,51.974 111.947,52.258 110.923,52.263C105.097,52.292 104.925,52.171 104.713,52.637C104.428,53.263 104.636,63.35 104.599,64.967C104.562,66.564 104.733,67.121 103.554,67.151C102.053,67.189 97.775,67.095 97.487,67.207C96.992,67.4 97.101,67.719 97.102,73.16C97.102,74.306 97.073,74.646 95.764,74.653C89.618,74.685 89.624,74.67 83.475,74.653C81.843,74.648 82.219,75.433 82.192,78.485C82.165,81.513 82.47,82.185 81.017,82.2C78.592,82.225 78.593,82.085 50.7,82.161C45.949,82.174 45.187,82.454 45.107,81.339C45.102,81.267 45.126,75.696 45.141,75.644C45.321,75.029 45.658,75.045 47.012,75.002C47.34,74.992 47.336,75.115 51.108,75.005C52.599,74.962 52.499,74.53 52.529,73.568C52.592,71.602 52.383,68.187 52.717,67.811C53.081,67.401 53.185,67.593 58.074,67.441C65.162,67.22 67.376,68.02 67.598,66.619C67.602,66.592 67.559,62.6 67.625,60.876C67.658,60.005 68.04,59.889 68.724,59.887C71.26,59.878 74.32,60.132 74.788,59.571C75.08,59.221 74.967,58.613 74.974,54.314C74.974,54.218 74.976,53.214 75.011,53.119C75.254,52.467 75.397,52.545 76.095,52.531C76.908,52.515 81.675,52.542 81.814,52.511C82.547,52.343 82.541,52.195 82.545,51.445C82.554,49.806 82.604,41.089 82.53,30.963C82.519,29.42 81.834,29.781 79.787,29.764C77.107,29.742 75.463,29.914 75.192,29.392C74.969,28.962 75.034,28.935 75.001,25.224C74.983,23.138 75.301,22.259 73.64,22.314C73.186,22.329 68.354,22.489 67.96,22.262C67.64,22.077 67.619,21.594 67.616,21.529C67.594,21.032 67.66,15.691 67.563,15.371C67.36,14.701 67.087,14.836 60.532,14.833C40.168,14.821 40.175,14.803 38.405,14.829C37.948,14.836 37.41,14.837 37.355,15.808C37.292,16.923 37.516,21.32 37.191,21.956C36.79,22.742 32.833,22.233 31.033,22.297C29.634,22.347 29.903,23.168 29.898,25.227C29.854,44.095 29.95,44.144 29.739,44.434C29.451,44.829 29.333,44.727 21.202,44.745C20.777,44.746 15.983,44.757 15.884,44.752C15.022,44.715 14.909,44.278 14.896,43.666C14.879,42.853 14.921,37.989 14.91,37.948C14.726,37.23 14.574,37.254 13.829,37.256C8.594,37.269 7.607,37.703 7.558,36.293C7.547,35.977 7.557,26.112 7.558,25.227C7.559,23.877 7.694,22.742 7.22,22.446C6.918,22.257 6.887,22.314 2.766,22.362C0.958,22.383 0.12,22.64 0.06,21.128C0.046,20.783 0,1.653 0.046,1.069C0.153,-0.284 1.488,0.108 3.994,0.032C5.031,0.001 62.019,0.037 62.99,0.003L62.989,0.003Z" style="fill:rgb(1,1,1);"/>
            <path d="M31.033,149.528C26.395,149.489 1.404,149.521 1.119,149.513C-0.019,149.481 0.038,148.844 0.034,148.133C-0.031,136.067 0.016,118.357 0.023,115.768C0.093,89.132 -0.051,89.142 0.026,62.508C0.031,60.681 -0.296,59.954 1.533,59.916C1.988,59.907 24.959,59.898 26.528,59.905C31.779,59.929 32.058,59.774 32.267,60.457C32.436,61.009 32.4,77.972 32.404,121.092C32.404,123.289 32.407,148.344 32.394,148.55C32.321,149.717 31.611,149.488 31.032,149.526L31.033,149.528Z" style="fill:rgb(1,1,1);"/>
            <path d="M187.314,140.758C187.267,135.391 187.221,135.052 187.907,134.883C187.996,134.861 193.681,134.777 194.122,134.955C194.686,135.184 194.61,136.611 194.601,137.892C194.526,147.696 194.638,147.696 194.601,148.548C194.553,149.653 193.726,149.53 192.859,149.526C184.769,149.494 180.867,149.571 180.536,149.487C179.736,149.284 179.933,147.737 179.933,147.721C179.914,143.977 179.868,142.779 180.226,142.476C180.721,142.057 184.638,142.389 186.295,142.251C187.595,142.143 187.297,141.194 187.315,140.758L187.314,140.758Z" style="fill:rgb(1,2,1);"/>
        </g>
        <g>
            <g transform="matrix(1,0,0,1,0,192.252)">
                <g transform="matrix(36.5,0,0,36.5,0,0)">
                    <path d="M0.125,-0.25L0,-0.25L0,-0.625L0.125,-0.625L0.125,-0.25ZM0.25,-0.25L0.25,-0.625L0.375,-0.625L0.375,-0.25L0.25,-0.25ZM0.5,-0.25L0.5,-0.625L0.625,-0.625L0.625,-0.25L0.5,-0.25ZM0.25,-0L0.125,-0L0.125,-0.25L0.25,-0.25L0.25,-0ZM0.5,-0L0.375,-0L0.375,-0.25L0.5,-0.25L0.5,-0Z" style="fill-rule:nonzero;"/>
                </g>
            </g>
            <g transform="matrix(1,0,0,1,29.091,192.252)">
                <g transform="matrix(36.5,0,0,36.5,0,0)">
                    <path d="M0.125,-0.5L0.125,-0.625L0.375,-0.625L0.375,-0.5L0.125,-0.5ZM0.125,-0.125L0,-0.125L0,-0.5L0.125,-0.5L0.125,-0.125ZM0.5,-0.125L0.375,-0.125L0.375,-0.5L0.5,-0.5L0.5,-0.125ZM0.375,-0.125L0.375,-0L0.125,-0L0.125,-0.125L0.375,-0.125Z" style="fill-rule:nonzero;"/>
                </g>
                <g transform="matrix(36.5,0,0,36.5,24.528,0)">
                    <path d="M0.125,-0L0,-0L0,-0.625L0.375,-0.625L0.375,-0.5L0.125,-0.5L0.125,-0.375L0.375,-0.375L0.375,-0.25L0.125,-0.25L0.125,-0ZM0.5,-0.375L0.375,-0.375L0.375,-0.5L0.5,-0.5L0.5,-0.375ZM0.5,-0L0.375,-0L0.375,-0.25L0.5,-0.25L0.5,-0Z" style="fill-rule:nonzero;"/>
                </g>
                <g transform="matrix(36.5,0,0,36.5,49.056,0)">
                    <path d="M0.125,-0L0,-0L0,-0.625L0.125,-0.625L0.125,-0.375L0.25,-0.375L0.25,-0.25L0.125,-0.25L0.125,-0ZM0.375,-0.5L0.375,-0.625L0.5,-0.625L0.5,-0.5L0.375,-0.5ZM0.25,-0.375L0.25,-0.5L0.375,-0.5L0.375,-0.375L0.25,-0.375ZM0.375,-0.125L0.25,-0.125L0.25,-0.25L0.375,-0.25L0.375,-0.125ZM0.375,-0L0.375,-0.125L0.5,-0.125L0.5,-0L0.375,-0Z" style="fill-rule:nonzero;"/>
                </g>
                <g transform="matrix(36.5,0,0,36.5,73.584,0)">
                    <path d="M0.125,-0.5L0.125,-0.625L0.5,-0.625L0.5,-0.5L0.125,-0.5ZM0,-0.375L0,-0.5L0.125,-0.5L0.125,-0.375L0,-0.375ZM0.125,-0.375L0.375,-0.375L0.375,-0.25L0.125,-0.25L0.125,-0.375ZM0.5,-0.125L0.375,-0.125L0.375,-0.25L0.5,-0.25L0.5,-0.125ZM0.375,-0.125L0.375,-0L0,-0L0,-0.125L0.375,-0.125Z" style="fill-rule:nonzero;"/>
                </g>
                <g transform="matrix(36.5,0,0,36.5,98.112,0)">
                    <path d="M0.125,-0L0,-0L0,-0.625L0.125,-0.625L0.125,-0.375L0.375,-0.375L0.375,-0.625L0.5,-0.625L0.5,-0L0.375,-0L0.375,-0.25L0.125,-0.25L0.125,-0Z" style="fill-rule:nonzero;"/>
                </g>
                <g transform="matrix(36.5,0,0,36.5,122.64,0)">
                    <path d="M0.125,-0.5L0.125,-0.625L0.375,-0.625L0.375,-0.5L0.125,-0.5ZM0.125,-0.125L0,-0.125L0,-0.5L0.125,-0.5L0.125,-0.125ZM0.5,-0.125L0.375,-0.125L0.375,-0.5L0.5,-0.5L0.5,-0.125ZM0.375,-0.125L0.375,-0L0.125,-0L0.125,-0.125L0.375,-0.125Z" style="fill-rule:nonzero;"/>
                </g>
                <g transform="matrix(36.5,0,0,36.5,147.168,0)">
                    <path d="M0.125,-0L0,-0L0,-0.625L0.375,-0.625L0.375,-0.5L0.125,-0.5L0.125,-0.375L0.375,-0.375L0.375,-0.25L0.125,-0.25L0.125,-0ZM0.375,-0.375L0.375,-0.5L0.5,-0.5L0.5,-0.375L0.375,-0.375Z" style="fill-rule:nonzero;"/>
                </g>
            </g>
        </g>
    </g>
</svg>
